X: 39474
T: Tarruing Teann An Crios
R: slip jig
M: 9/8
K: Dmajor
d2B B>B>B BAG|d>dd g>ed e2d|d2B B>B>B BAG|g>ed B>AG B3|
d2B B>B>B BAG|d>dd g>ed e3|d2B B>B>B Bee|e>ge B>dd e3|
d2g e>g>e B2d|e>e>e g>ed e2d|d2g e>ge B>BB|g>ed B>A>G B3|
d2g e>ge d2B|e>e>e g>ed e2d|d2g e>ge B>ee|e>ge B>d>d e3||

